images/wayfinding/nyc-wayfinding-pylon-large.svg

<?xml version="1.0" standalone="no"?><!DOCTYPE svg PUBLIC "-//W3C//DTD SVG 1.1//EN" "http://www.w3.org/Graphics/SVG/1.1/DTD/svg11.dtd"><svg width="96px" height="264px" version="1.1" xmlns="http://www.w3.org/2000/svg" xmlns:xlink="http://www.w3.org/1999/xlink" xml:space="preserve" style="fill-rule:evenodd;clip-rule:evenodd;stroke-linejoin:round;stroke-miterlimit:1.41421;"><g><g id="nyc-wayfinding-pylon-large" transform="matrix(0.5,0,0,0.5,-24.25,24)"><g id="pylon"><g transform="matrix(1,0,0,1,-3.9998,0)"><path d="M55.9998,84l-4,396l193,0l-4,-396l-185,0Z" style="fill:#c1bebb;fill-rule:nonzero;"/></g><g transform="matrix(1,0,0,1,-4.4998,0)"><path d="M55.9998,84l-0.06,12.435l185.121,-0.435l-0.061,-12l-185,0Z" style="fill:#07bcd0;fill-rule:nonzero;"/></g><g transform="matrix(1,0,0,1,-4.4998,0)"><path d="M55.8818,95.6831l-2.75,272.317l190.737,0l-2.754,-272.623l-185.233,0.306Z" style="fill:#5c5e5f;fill-rule:nonzero;"/></g><g transform="matrix(1,0,0,1,-4.4998,0)"><path d="M70.0002,343l156,2l1.999,-161l-156.999,-2l-1,161Z" style="fill:#d8d3cb;fill-rule:nonzero;"/></g><g transform="matrix(1,0,0,1,-4.4998,0)"><path d="M70.0002,106.226l50.178,0.032l0.322,-5.225l-50.178,-0.032l-0.322,5.225Z" style="fill:#d8d3cb;fill-rule:nonzero;"/></g><g transform="matrix(1,0,0,1,-4.4998,0)"><path d="M70.0002,121.796l25.211,0.026l0.162,-4.093l-25.211,-0.025l-0.162,4.092Z" style="fill:#d8d3cb;fill-rule:nonzero;"/></g><g transform="matrix(1,0,0,1,-4.4998,0)"><path d="M70.0002,130.796l25.211,0.026l0.162,-4.093l-25.211,-0.025l-0.162,4.092Z" style="fill:#d8d3cb;fill-rule:nonzero;"/></g><g transform="matrix(1,0,0,1,-4.4998,0)"><path d="M202,149.796l25.212,0.025l0.162,-4.093l-25.211,-0.025l-0.163,4.093Z" style="fill:#d8d3cb;fill-rule:nonzero;"/></g><g transform="matrix(1,0,0,1,-4.4998,0)"><path d="M202,169.796l25.212,0.025l0.162,-4.093l-25.211,-0.025l-0.163,4.093Z" style="fill:#d8d3cb;fill-rule:nonzero;"/></g><g transform="matrix(1,0,0,1,-4.4998,0)"><path d="M55.2625,157l-0.02,2l186.515,0l-0.02,-2l-186.475,0Z" style="fill:#d8d3cb;fill-rule:nonzero;"/></g><g transform="matrix(1,0,0,1,-4.4998,0)"><path d="M55.7372,110l-0.03,3l185.586,0l-0.03,-3l-185.526,0Z" style="fill:#d8d3cb;fill-rule:nonzero;"/></g><g transform="matrix(1,0,0,1,-4.4998,0)"><path d="M55.4847,135l-0.03,3l186.091,0l-0.03,-3l-186.031,0Z" style="fill:#d8d3cb;fill-rule:nonzero;"/></g></g><g id="map"><g transform="matrix(1,0,0,1,48.5,-48)"><path d="M14.0892,365.478l-2.84395,-0.954959l46,-136.992l2.84395,0.954959c-15.3333,45.664 -30.6667,91.328 -46,136.992Z" style="fill:#5c5e5f;fill-rule:nonzero;"/></g><g transform="matrix(1,0,0,1,48.5,-48)"><path d="M14.0892,306.784l-2.84395,-0.954966l32,-95.298l2.84395,0.954966c-10.6667,31.766 -21.3333,63.532 -32,95.298Z" style="fill:#5c5e5f;fill-rule:nonzero;"/></g><g transform="matrix(1,0,0,1,48.5,-48)"><path d="M23.7281,393.594l-3.45585,-1.18692l56.667,-164.992l3.45585,1.18692c-18.889,54.9973 -37.778,109.995 -56.667,164.992Z" style="fill:#5c5e5f;fill-rule:nonzero;"/></g><g transform="matrix(1,0,0,1,48.5,-48)"><path d="M48.7281,393.594l-3.45585,-1.18692l56.667,-164.992l3.45585,1.18692c-18.889,54.9973 -37.778,109.995 -56.667,164.992Z" style="fill:#5c5e5f;fill-rule:nonzero;"/></g><g transform="matrix(1,0,0,1,48.5,-48)"><path d="M76.7281,393.594l-3.45585,-1.18692l56.667,-164.992l3.45585,1.18692c-18.889,54.9973 -37.778,109.995 -56.667,164.992Z" style="fill:#5c5e5f;fill-rule:nonzero;"/></g><g transform="matrix(1,0,0,1,48.5,-48)"><path d="M97.7281,393.594l-3.45585,-1.18692l56.667,-164.992l3.45585,1.18692c-18.889,54.9973 -37.778,109.995 -56.667,164.992Z" style="fill:#5c5e5f;fill-rule:nonzero;"/></g><g transform="matrix(1,0,0,1,48.5,-48)"><path d="M118.728,393.594l-3.45585,-1.18692l56.667,-164.992l3.45585,1.18692c-18.889,54.9973 -37.778,109.995 -56.667,164.992Z" style="fill:#5c5e5f;fill-rule:nonzero;"/></g><g transform="matrix(1,0,0,1,48.5,-48)"><path d="M142.3,393.446l-2.59993,-0.892964l42.632,-124.126l2.59993,0.892964c-14.2107,41.3753 -28.4213,82.7507 -42.632,124.126Z" style="fill:#5c5e5f;fill-rule:nonzero;"/></g><g transform="matrix(1,0,0,1,48.5,-48)"><path d="M160.419,403.487l-2.83733,-0.974454l22.064,-64.244l2.83733,0.974454c-7.35467,21.4147 -14.7093,42.8293 -22.064,64.244Z" style="fill:#5c5e5f;fill-rule:nonzero;"/></g><g transform="matrix(1,0,0,1,48.5,-48)"><path d="M180.168,272.443l-136.992,-46l0.954959,-2.84395l136.992,46c-0.31832,0.947983 -0.636639,1.89597 -0.954959,2.84395Z" style="fill:#5c5e5f;fill-rule:nonzero;"/></g><g transform="matrix(1,0,0,1,48.5,-48)"><path d="M180.052,292.749l-164.992,-56.667l1.18692,-3.45585l164.992,56.667c-0.395641,1.15195 -0.791282,2.3039 -1.18692,3.45585Z" style="fill:#5c5e5f;fill-rule:nonzero;"/></g><g transform="matrix(1,0,0,1,48.5,-48)"><path d="M180.052,317.749l-164.992,-56.667l1.18692,-3.45585l164.992,56.667c-0.395641,1.15195 -0.791282,2.3039 -1.18692,3.45585Z" style="fill:#5c5e5f;fill-rule:nonzero;"/></g><g transform="matrix(1,0,0,1,48.5,-48)"><path d="M180.052,345.749l-164.992,-56.667l1.18692,-3.45585l164.992,56.667c-0.395641,1.15195 -0.791282,2.3039 -1.18692,3.45585Z" style="fill:#5c5e5f;fill-rule:nonzero;"/></g><g transform="matrix(1,0,0,1,48.5,-48)"><path d="M180.052,366.749l-164.992,-56.667l1.18692,-3.45585l164.992,56.667c-0.395641,1.15195 -0.791282,2.3039 -1.18692,3.45585Z" style="fill:#5c5e5f;fill-rule:nonzero;"/></g><g transform="matrix(1,0,0,1,48.5,-48)"><path d="M180.052,387.749l-164.992,-56.667l1.18692,-3.45585l164.992,56.667c-0.395641,1.15195 -0.791283,2.3039 -1.18692,3.45585Z" style="fill:#5c5e5f;fill-rule:nonzero;"/></g><g transform="matrix(1,0,0,1,48.5,-48)"><path d="M139.334,397.286l-124.127,-42.632l0.892958,-2.59993l124.127,42.632c-0.297653,0.866643 -0.595305,1.73329 -0.892958,2.59993Z" style="fill:#5c5e5f;fill-rule:nonzero;"/></g><g transform="matrix(1,0,0,1,48.5,-48)"><path d="M156.604,403.712l-55.333,-186.326l4.79311,-1.4234l55.333,186.326c-1.5977,0.474468 -3.19541,0.948936 -4.79311,1.4234Z" style="fill:#5c5e5f;fill-rule:nonzero;"/></g></g></g></g></svg>

<?xml version="1.0" encoding="UTF-8" standalone="no"?>
<!DOCTYPE svg PUBLIC "-//W3C//DTD SVG 1.1//EN" "http://www.w3.org/Graphics/SVG/1.1/DTD/svg11.dtd">
<svg width="100%" height="100%" viewBox="0 0 120 260" version="1.1" xmlns="http://www.w3.org/2000/svg" xmlns:xlink="http://www.w3.org/1999/xlink" xml:space="preserve" xmlns:serif="http://www.serif.com/" style="fill-rule:evenodd;clip-rule:evenodd;stroke-linejoin:round;stroke-miterlimit:2;">
    <g id="nyc-wayfinding-pylon-large" transform="matrix(0.635,0,0,0.635,-31.7575,-44.8)">
        <g id="pylon">
            <g transform="matrix(1,0,0,1,-3.9998,0)">
                <path d="M58.012,84L54.012,480L242.988,480L238.988,84L58.012,84Z" style="fill:rgb(193,190,187);fill-rule:nonzero;"/>
            </g>
            <g transform="matrix(1,0,0,1,-4.4998,0)">
                <path d="M58.012,84L57.952,96.435L239.049,96L238.988,84L58.012,84Z" style="fill:rgb(7,188,208);fill-rule:nonzero;"/>
            </g>
            <g transform="matrix(1,0,0,1,-4.4998,0)">
                <path d="M57.894,95.683L55.144,368L241.857,368L239.103,95.377L57.894,95.683Z" style="fill:rgb(92,94,95);fill-rule:nonzero;"/>
            </g>
            <g transform="matrix(1,0,0,1,-4.4998,0)">
                <path d="M70,343L226,345L227.999,184L71,182L70,343Z" style="fill:rgb(216,211,203);fill-rule:nonzero;"/>
            </g>
            <g transform="matrix(1,0,0,1,-4.4998,0)">
                <path d="M70,106.226L120.178,106.258L120.5,101.033L70.322,101.001L70,106.226Z" style="fill:rgb(216,211,203);fill-rule:nonzero;"/>
            </g>
            <g transform="matrix(1,0,0,1,-4.4998,0)">
                <path d="M70,121.796L95.211,121.822L95.373,117.729L70.162,117.704L70,121.796Z" style="fill:rgb(216,211,203);fill-rule:nonzero;"/>
            </g>
            <g transform="matrix(1,0,0,1,-4.4998,0)">
                <path d="M70,130.796L95.211,130.822L95.373,126.729L70.162,126.704L70,130.796Z" style="fill:rgb(216,211,203);fill-rule:nonzero;"/>
            </g>
            <g transform="matrix(1,0,0,1,-4.4998,0)">
                <path d="M202,149.796L227.212,149.821L227.374,145.728L202.163,145.703L202,149.796Z" style="fill:rgb(216,211,203);fill-rule:nonzero;"/>
            </g>
            <g transform="matrix(1,0,0,1,-4.4998,0)">
                <path d="M202,169.796L227.212,169.821L227.374,165.728L202.163,165.703L202,169.796Z" style="fill:rgb(216,211,203);fill-rule:nonzero;"/>
            </g>
            <g transform="matrix(1,0,0,1,-4.4998,0)">
                <path d="M57.972,157L57.952,159L240.246,159L240.226,157L57.972,157Z" style="fill:rgb(216,211,203);fill-rule:nonzero;"/>
            </g>
            <g transform="matrix(1,0,0,1,-4.4998,0)">
                <path d="M58.446,110L58.416,113L239.781,113L239.751,110L58.446,110Z" style="fill:rgb(216,211,203);fill-rule:nonzero;"/>
            </g>
            <g transform="matrix(1,0,0,1,-4.4998,0)">
                <path d="M58.194,135L58.164,138L240.034,138L240.004,135L58.194,135Z" style="fill:rgb(216,211,203);fill-rule:nonzero;"/>
            </g>
        </g>
        <g id="map">
            <g transform="matrix(1,0,0,1,48.5,-48)">
                <path d="M14.089,365.478L11.245,364.523L57.245,227.531L60.089,228.486C44.756,274.15 29.423,319.814 14.089,365.478Z" style="fill:rgb(92,94,95);fill-rule:nonzero;"/>
            </g>
            <g transform="matrix(1,0,0,1,48.5,-48)">
                <path d="M14.089,306.784L11.245,305.829L43.245,210.531L46.089,211.486C35.423,243.252 24.756,275.018 14.089,306.784Z" style="fill:rgb(92,94,95);fill-rule:nonzero;"/>
            </g>
            <g transform="matrix(1,0,0,1,48.5,-48)">
                <path d="M23.728,393.594L20.272,392.407L76.939,227.415L80.395,228.602C61.506,283.599 42.617,338.596 23.728,393.594Z" style="fill:rgb(92,94,95);fill-rule:nonzero;"/>
            </g>
            <g transform="matrix(1,0,0,1,48.5,-48)">
                <path d="M48.728,393.594L45.272,392.407L101.939,227.415L105.395,228.602C86.506,283.599 67.617,338.596 48.728,393.594Z" style="fill:rgb(92,94,95);fill-rule:nonzero;"/>
            </g>
            <g transform="matrix(1,0,0,1,48.5,-48)">
                <path d="M76.728,393.594L73.272,392.407L129.939,227.415L133.395,228.602C114.506,283.599 95.617,338.596 76.728,393.594Z" style="fill:rgb(92,94,95);fill-rule:nonzero;"/>
            </g>
            <g transform="matrix(1,0,0,1,48.5,-48)">
                <path d="M97.728,393.594L94.272,392.407L150.939,227.415L154.395,228.602C135.506,283.599 116.617,338.596 97.728,393.594Z" style="fill:rgb(92,94,95);fill-rule:nonzero;"/>
            </g>
            <g transform="matrix(1,0,0,1,48.5,-48)">
                <path d="M118.728,393.594L115.272,392.407L171.939,227.415L175.395,228.602C156.506,283.599 137.617,338.596 118.728,393.594Z" style="fill:rgb(92,94,95);fill-rule:nonzero;"/>
            </g>
            <g transform="matrix(1,0,0,1,48.5,-48)">
                <path d="M142.3,393.446L139.7,392.553L182.332,268.427L184.932,269.32C170.721,310.695 156.511,352.071 142.3,393.446Z" style="fill:rgb(92,94,95);fill-rule:nonzero;"/>
            </g>
            <g transform="matrix(1,0,0,1,48.5,-48)">
                <path d="M160.419,403.487L157.582,402.513L179.646,338.269L182.483,339.243C175.129,360.658 167.774,382.072 160.419,403.487Z" style="fill:rgb(92,94,95);fill-rule:nonzero;"/>
            </g>
            <g transform="matrix(1,0,0,1,48.5,-48)">
                <path d="M180.168,272.443L43.176,226.443L44.131,223.6L181.123,269.6C180.805,270.548 180.487,271.495 180.168,272.443Z" style="fill:rgb(92,94,95);fill-rule:nonzero;"/>
            </g>
            <g transform="matrix(1,0,0,1,48.5,-48)">
                <path d="M180.052,292.749L15.06,236.082L16.247,232.627L181.239,289.294C180.844,290.446 180.448,291.597 180.052,292.749Z" style="fill:rgb(92,94,95);fill-rule:nonzero;"/>
            </g>
            <g transform="matrix(1,0,0,1,48.5,-48)">
                <path d="M180.052,317.749L15.06,261.082L16.247,257.627L181.239,314.294C180.844,315.446 180.448,316.597 180.052,317.749Z" style="fill:rgb(92,94,95);fill-rule:nonzero;"/>
            </g>
            <g transform="matrix(1,0,0,1,48.5,-48)">
                <path d="M180.052,345.749L15.06,289.082L16.247,285.627L181.239,342.294C180.844,343.446 180.448,344.597 180.052,345.749Z" style="fill:rgb(92,94,95);fill-rule:nonzero;"/>
            </g>
            <g transform="matrix(1,0,0,1,48.5,-48)">
                <path d="M180.052,366.749L15.06,310.082L16.247,306.627L181.239,363.294C180.844,364.446 180.448,365.597 180.052,366.749Z" style="fill:rgb(92,94,95);fill-rule:nonzero;"/>
            </g>
            <g transform="matrix(1,0,0,1,48.5,-48)">
                <path d="M180.052,387.749L15.06,331.082L16.247,327.627L181.239,384.294C180.844,385.446 180.448,386.597 180.052,387.749Z" style="fill:rgb(92,94,95);fill-rule:nonzero;"/>
            </g>
            <g transform="matrix(1,0,0,1,48.5,-48)">
                <path d="M139.334,397.286L15.207,354.654L16.1,352.054L140.227,394.686C139.929,395.553 139.632,396.42 139.334,397.286Z" style="fill:rgb(92,94,95);fill-rule:nonzero;"/>
            </g>
            <g transform="matrix(1,0,0,1,48.5,-48)">
                <path d="M156.604,403.712L101.271,217.386L106.064,215.962L161.397,402.288C159.799,402.763 158.201,403.237 156.604,403.712Z" style="fill:rgb(92,94,95);fill-rule:nonzero;"/>
            </g>
        </g>
    </g>
</svg>
